X:4
T:GB/7a/4A Green Mossy Banks of the Lea Version 2 of 4 
%%VWML:GB-7a-4A-0
F:http://www.vwml.org/record/GB/7a/4A
C:Transcribed by Simon Furey and Lewis Jones
L:1/4
M:3/4
I:linebreak $
K:Ddor
A, | D D E | F G/F/ D | C !fermata!D F/G/ | A c A | G E/D/ C | D2 :| A | c B A | A/G/ E ^F |
G !fermata!A A/G/ |$ F E D | D A, B, | C2 (3A,/B,/C/ | D D E | F G/F/ D | C !fermata!D F/G/ | A c A | G E/D/ C | D2 |]

